icons/googleanalytics-dark.svg

<svg width="256" height="256" viewBox="0 0 256 256" fill="none" xmlns="http://www.w3.org/2000/svg">
<path d="M196 0H60C26.8629 0 0 26.8629 0 60V196C0 229.137 26.8629 256 60 256H196C229.137 256 256 229.137 256 196V60C256 26.8629 229.137 0 196 0Z" fill="#282828"/>
<g clip-path="url(#clip0_164_574)">
<path d="M206.376 193.776C206.408 199.998 203.769 205.934 199.128 210.079C194.487 214.223 188.291 216.176 182.112 215.442C170.994 213.797 162.846 204.121 163.117 192.885V63.7039C162.848 52.4556 171.016 42.7755 182.149 41.1473C188.322 40.4248 194.508 42.3831 199.14 46.526C203.773 50.6689 206.407 56.5989 206.376 62.8135V193.776Z" fill="#F9AB00"/>
<path d="M70.2561 172.369C82.2016 172.369 91.8853 182.053 91.8853 193.998C91.8853 205.944 82.2016 215.627 70.2561 215.627C58.3107 215.627 48.627 205.944 48.627 193.998C48.627 182.053 58.3107 172.369 70.2561 172.369ZM127.167 106.814C115.165 107.472 105.853 117.539 106.132 129.556V187.654C106.132 203.422 113.069 212.993 123.235 215.034C129.616 216.327 136.241 214.682 141.276 210.553C146.311 206.424 149.223 200.25 149.204 193.739V128.554C149.215 122.733 146.887 117.152 142.743 113.064C138.599 108.976 132.987 106.724 127.167 106.814Z" fill="#E37400"/>
</g>
<defs>
<clipPath id="clip0_164_574">
<rect width="175" height="175" fill="white" transform="translate(40 41)"/>
</clipPath>
</defs>
</svg>

<svg xmlns="http://www.w3.org/2000/svg" width="256" height="256" fill="none"><path fill="#282828" d="M196 0H60C26.863 0 0 26.863 0 60v136c0 33.137 26.863 60 60 60h136c33.137 0 60-26.863 60-60V60c0-33.137-26.863-60-60-60"/><g clip-path="url(#clip0_164_574)"><path fill="#F9AB00" d="M206.376 193.776a21.703 21.703 0 0 1-24.264 21.666c-11.118-1.645-19.266-11.321-18.995-22.557V63.704c-.269-11.248 7.899-20.928 19.032-22.557a21.702 21.702 0 0 1 24.227 21.667z"/><path fill="#E37400" d="M70.256 172.369c11.946 0 21.63 9.684 21.63 21.629s-9.684 21.629-21.63 21.629-21.629-9.683-21.629-21.629c0-11.945 9.684-21.629 21.63-21.629m56.911-65.555c-12.002.658-21.314 10.725-21.035 22.742v58.098c0 15.768 6.937 25.339 17.103 27.38a21.666 21.666 0 0 0 25.969-21.295v-65.185a21.7 21.7 0 0 0-22.037-21.74"/></g><defs><clipPath id="clip0_164_574"><path fill="#fff" d="M40 41h175v175H40z"/></clipPath></defs></svg>
